assets/svg/1f1ec-1f1f7.svg

<svg xmlns="http://www.w3.org/2000/svg" viewBox="0 0 64 64" enable-background="new 0 0 64 64"><path fill="#428bc1" d="m56 14h-24v6h27.496c-.935-2.141-2.109-4.155-3.496-6"/><g fill="#f9f9f9"><path d="m32 14h24c-1.706-2.271-3.729-4.293-6-6h-18v6"/><path d="m59.5 20h-27.496v6h29.398c-.423-2.088-1.068-4.094-1.902-6"/></g><path fill="#428bc1" d="m4.504 44h54.992c.834-1.906 1.479-3.912 1.902-6h-58.796c.423 2.088 1.068 4.094 1.902 6"/><path fill="#f9f9f9" d="M8,50h48c1.387-1.846,2.561-3.859,3.496-6H4.504C5.439,46.141,6.613,48.154,8,50z"/><path fill="#428bc1" d="M8,50c1.706,2.271,3.729,4.293,6,6h36c2.271-1.707,4.294-3.729,6-6H8z"/><g fill="#f9f9f9"><path d="m14 56c5.01 3.766 11.246 6 18 6s12.986-2.234 18-6h-36"/><path d="m20 32v-12h12v-6h-12v-9.497c-2.146.938-4.151 2.129-6 3.519v5.978h-5.982c-1.389 1.846-2.566 3.859-3.505 6h9.487v12h-12c0 2.055.207 4.061.602 6h58.797c.394-1.939.601-3.945.601-6h-42"/></g><g fill="#428bc1"><path d="m61.4 26h-29.398v-6h-12v12h12 30c0-2.055-.207-4.061-.602-6"/><path d="m32 2c-4.268 0-8.324.896-12 2.504v9.496h12v-6h18c-5.01-3.767-11.246-6-18-6"/><path d="m14 14v-6c-2.271 1.707-4.294 3.729-6 6h6"/><path d="M4.504,20C2.896,23.675,2,27.732,2,32h12V20H4.504z"/></g></svg>

<svg xmlns="http://www.w3.org/2000/svg" width="64" height="64" viewBox="0 0 64 64"><path fill="#428BC1" d="M56 14H32v6h27.496A29.892 29.892 0 0 0 56 14z"/><path fill="#F9F9F9" d="M32 14h24a30.213 30.213 0 0 0-6-6H32v6zM59.496 20H32v6h29.398a29.64 29.64 0 0 0-1.902-6z"/><path fill="#428BC1" d="M4.504 44h54.992a29.64 29.64 0 0 0 1.902-6H2.602a29.64 29.64 0 0 0 1.902 6z"/><path fill="#F9F9F9" d="M8 50h48a29.92 29.92 0 0 0 3.496-6H4.504A29.92 29.92 0 0 0 8 50z"/><path fill="#428BC1" d="M8 50a30.213 30.213 0 0 0 6 6h36a30.213 30.213 0 0 0 6-6H8z"/><path fill="#F9F9F9" d="M14 56c5.014 3.766 11.246 6 18 6s12.986-2.234 18-6H14zM20 32V20h12v-6H20V4.503a29.96 29.96 0 0 0-6 3.519V14H8.018a30.053 30.053 0 0 0-3.505 6H14v12H2c0 2.055.207 4.061.602 6h58.797c.394-1.939.601-3.945.601-6H20z"/><path fill="#428BC1" d="M61.398 26H32v-6H20v12h42a30.03 30.03 0 0 0-.602-6zM32 2c-4.268 0-8.324.896-12 2.504V14h12V8h18a29.863 29.863 0 0 0-18-6zM14 14V8a30.213 30.213 0 0 0-6 6h6zM4.504 20A29.859 29.859 0 0 0 2 32h12V20H4.504z"/></svg>
